svg/信息来源.svg

<svg width="24" height="24" viewBox="0 0 24 24" fill="none" xmlns="http://www.w3.org/2000/svg"><path d="M8.57199 1.71436H3.42913C2.48236 1.71436 1.71484 2.48187 1.71484 3.42864V8.5715C1.71484 9.51827 2.48236 10.2858 3.42913 10.2858H8.57199C9.51876 10.2858 10.2863 9.51827 10.2863 8.5715V3.42864C10.2863 2.48187 9.51876 1.71436 8.57199 1.71436Z" stroke="#FBBF24" stroke-width="1.84615"/><path d="M20.572 1.71436H15.4291C14.4824 1.71436 13.7148 2.48187 13.7148 3.42864V8.5715C13.7148 9.51827 14.4824 10.2858 15.4291 10.2858H20.572C21.5188 10.2858 22.2863 9.51827 22.2863 8.5715V3.42864C22.2863 2.48187 21.5188 1.71436 20.572 1.71436Z" stroke="#FBBF24" stroke-width="1.84615"/><path d="M8.57199 13.7144H3.42913C2.48236 13.7144 1.71484 14.4819 1.71484 15.4286V20.5715C1.71484 21.5183 2.48236 22.2858 3.42913 22.2858H8.57199C9.51876 22.2858 10.2863 21.5183 10.2863 20.5715V15.4286C10.2863 14.4819 9.51876 13.7144 8.57199 13.7144Z" stroke="#FBBF24" stroke-width="1.84615"/><path d="M20.572 13.7144H15.4291C14.4824 13.7144 13.7148 14.4819 13.7148 15.4286V20.5715C13.7148 21.5183 14.4824 22.2858 15.4291 22.2858H20.572C21.5188 22.2858 22.2863 21.5183 22.2863 20.5715V15.4286C22.2863 14.4819 21.5188 13.7144 20.572 13.7144Z" stroke="#FBBF24" stroke-width="1.84615"/><defs><clipPath id="clip0_1063_1503"><rect width="24" height="24" fill="white"/></clipPath></defs></svg>

<svg fill="none" viewBox="0 0 24 24"><path stroke="#FBBF24" stroke-width="1.846" d="M8.572 1.714H3.429c-.947 0-1.714.768-1.714 1.715v5.143c0 .946.767 1.714 1.714 1.714h5.143c.947 0 1.714-.768 1.714-1.714V3.429c0-.947-.767-1.715-1.714-1.715Z"/><path stroke="#FBBF24" stroke-width="1.846" d="M20.572 1.714h-5.143c-.947 0-1.714.768-1.714 1.715v5.143c0 .946.767 1.714 1.714 1.714h5.143c.947 0 1.714-.768 1.714-1.714V3.429c0-.947-.767-1.715-1.714-1.715Z"/><path stroke="#FBBF24" stroke-width="1.846" d="M8.572 13.714H3.429c-.947 0-1.714.768-1.714 1.715v5.143c0 .946.767 1.714 1.714 1.714h5.143c.947 0 1.714-.768 1.714-1.715V15.43c0-.947-.767-1.715-1.714-1.715Z"/><path stroke="#FBBF24" stroke-width="1.846" d="M20.572 13.714h-5.143c-.947 0-1.714.768-1.714 1.715v5.143c0 .946.767 1.714 1.714 1.714h5.143c.947 0 1.714-.768 1.714-1.715V15.43c0-.947-.767-1.715-1.714-1.715Z"/></svg>
